actions/22x22-light/zoom-double-size.svg

<svg viewBox="0 0 22 22" xmlns="http://www.w3.org/2000/svg"><path d="m6.625 3-3.2519531.0097656c-.10335.00033-.1961719.0435281-.2636719.1113282-.06759.0677699-.109675.1605318-.109375.2636718l.0097656 3.2421875c.00066.2063.1702031.3737469.3769532.3730469.2067299-.00066.3736568-.16875.3730468-.375l-.0097656-2.8691406 2.8769531-.0097656c.20671-.0006501.3736969-.1668269.3730469-.3730469-.00057-.20629-.16813-.3737569-.375-.3730469zm8.75 0c-.20686-.00071-.37444.1667569-.375.3730469-.00065.20622.166337.3723968.373047.3730469l2.876953.0097656-.009766 2.8691406c-.00061.20625.166327.37434.373047.375.20676.0007.376293-.1667469.376953-.3730469l.009766-3.2421875c.0003-.10314-.041785-.1959019-.109375-.2636718-.0675-.0678001-.160322-.1109982-.263672-.1113282zm-1.974609 2c-.2216 0-.400391.1787905-.400391.4003906v11.1992184c0 .2216.178791.400391.400391.400391h3.199218c.2216 0 .400391-.178791.400391-.400391v-11.1992184c0-.2216001-.178791-.4003906-.400391-.4003906zm-8.0000004 3c-.2215998 0-.4003906.1787908-.4003906.4003906v5.1992184c0 .2216.1787908.400391.4003906.400391h2.1992188c.2215998 0 .4003906-.178791.4003906-.400391v-5.1992184c0-.2215998-.1787908-.4003906-.4003906-.4003906zm5.0097654.9941406c-.104731-.00008-.208777.0393575-.289062.1171875h-.001953c-.1610304.15543-.1596572.4197688.001953.5742188l1.36914 1.3085941-1.359375 1.316406c-.1610596.15546-.1597565.419819.001953.574219.16162.15499.419419.153796.580079-.001954l1.615234-1.564453.042969-.041015c.08-.0777.12539-.18273.125-.28711-.00032-.10422-.044-.207926-.125-.285156l-1.671875-1.5937499c-.08086-.07751-.184331-.1171075-.289063-.1171875zm-7.0234372 6.0058594c-.2067501-.0007-.3762932.166757-.3769532.373047l-.0097656 3.242187c-.0003.10313.041785.195892.109375.263672.0675.0678.1603219.110998.2636719.111328l3.2519531.009766c.20686.00071.37443-.166747.375-.373047.00065-.20621-.1663469-.372397-.3730469-.373047l-2.8769531-.009765.0097656-2.869141c.00062-.20624-.1663169-.37433-.3730468-.375zm15.2265622 0c-.20672.00067-.373657.16876-.373047.375l.009766 2.869141-2.876953.009765c-.20671.00065-.373697.166837-.373047.373047.00056.2063.16814.373757.375.373047l3.251953-.009766c.10335-.00033.196172-.043528.263672-.111328.06759-.06778.109675-.160542.109375-.263672l-.009766-3.242187c-.00066-.20629-.170193-.373747-.376953-.373047z" fill="#4d4d4d"/></svg>

<svg xmlns="http://www.w3.org/2000/svg" viewBox="0 0 22 22">
  <defs id="defs3051">
    <style type="text/css" id="current-color-scheme">
      .ColorScheme-Text {
        color:#4d4d4d
      }
      </style>
  </defs>
    <path
       style="fill:currentColor;fill-opacity:1;stroke:none"
       class="ColorScheme-Text"
       d="M 6.625 3 L 3.3730469 3.0097656 C 3.2696969 3.0100956 3.176875 3.0532937 3.109375 3.1210938 C 3.041785 3.1888637 2.9997 3.2816256 3 3.3847656 L 3.0097656 6.6269531 C 3.0104256 6.8332531 3.1799687 7.0007 3.3867188 7 C 3.5934487 6.99934 3.7603756 6.83125 3.7597656 6.625 L 3.75 3.7558594 L 6.6269531 3.7460938 C 6.8336631 3.7454437 7.00065 3.5792669 7 3.3730469 C 6.99943 3.1667569 6.83187 2.99929 6.625 3 z M 15.375 3 C 15.16814 2.99929 15.00056 3.1667569 15 3.3730469 C 14.99935 3.5792669 15.166337 3.7454437 15.373047 3.7460938 L 18.25 3.7558594 L 18.240234 6.625 C 18.239624 6.83125 18.406561 6.99934 18.613281 7 C 18.820041 7.0007 18.989574 6.8332531 18.990234 6.6269531 L 19 3.3847656 C 19.0003 3.2816256 18.958215 3.1888637 18.890625 3.1210938 C 18.823125 3.0532937 18.730303 3.0100956 18.626953 3.0097656 L 15.375 3 z M 13.400391 5 C 13.178791 5 13 5.1787905 13 5.4003906 L 13 16.599609 C 13 16.821209 13.178791 17 13.400391 17 L 16.599609 17 C 16.821209 17 17 16.821209 17 16.599609 L 17 5.4003906 C 17 5.1787905 16.821209 5 16.599609 5 L 13.400391 5 z M 5.4003906 8 C 5.1787908 8 5 8.1787908 5 8.4003906 L 5 13.599609 C 5 13.821209 5.1787908 14 5.4003906 14 L 7.5996094 14 C 7.8212092 14 8 13.821209 8 13.599609 L 8 8.4003906 C 8 8.1787908 7.8212092 8 7.5996094 8 L 5.4003906 8 z M 10.410156 8.9941406 C 10.305425 8.9940606 10.201379 9.0334981 10.121094 9.1113281 L 10.119141 9.1113281 C 9.9581106 9.2667581 9.9594838 9.5310969 10.121094 9.6855469 L 11.490234 10.994141 L 10.130859 12.310547 C 9.9697994 12.466007 9.9711025 12.730366 10.132812 12.884766 C 10.294432 13.039756 10.552231 13.038562 10.712891 12.882812 L 12.328125 11.318359 L 12.371094 11.277344 C 12.451094 11.199644 12.496484 11.094614 12.496094 10.990234 C 12.495774 10.886014 12.452094 10.782308 12.371094 10.705078 L 10.699219 9.1113281 C 10.618359 9.0338181 10.514888 8.9942206 10.410156 8.9941406 z M 3.3867188 15 C 3.1799687 14.9993 3.0104256 15.166757 3.0097656 15.373047 L 3 18.615234 C 2.9997 18.718364 3.041785 18.811126 3.109375 18.878906 C 3.176875 18.946706 3.2696969 18.989904 3.3730469 18.990234 L 6.625 19 C 6.83186 19.00071 6.99943 18.833253 7 18.626953 C 7.00065 18.420743 6.8336531 18.254556 6.6269531 18.253906 L 3.75 18.244141 L 3.7597656 15.375 C 3.7603856 15.16876 3.5934487 15.00067 3.3867188 15 z M 18.613281 15 C 18.406561 15.00067 18.239624 15.16876 18.240234 15.375 L 18.25 18.244141 L 15.373047 18.253906 C 15.166337 18.254556 14.99935 18.420743 15 18.626953 C 15.00056 18.833253 15.16814 19.00071 15.375 19 L 18.626953 18.990234 C 18.730303 18.989904 18.823125 18.946706 18.890625 18.878906 C 18.958215 18.811126 19.0003 18.718364 19 18.615234 L 18.990234 15.373047 C 18.989574 15.166757 18.820041 14.9993 18.613281 15 z "
        />
</svg>
